!!!OTL: Die Mordeltern Es waren einst zwei Bauerssoehn,
!!!ARE: Europa, Mitteleuropa, Deutschland (BRD), Nordbayern, Unterfranken
!!!YOR: 4, S. 306
!!    ????
!!!SCT: Q0085D
!!!YEM: Copyright 1995, estate of Helmut Schaffrath.
**kern
*ICvox
*Ivox
!! Irregular meter.
*MX
*k[b-]
*F:
{4cc
4cc
4cc
=1
2a
4cc
4cc
4cc
=2
2a}
{4cc
4cc
8a
=3
2a
4g
4g
4b-
=4
2a}
{4dd
4dd
4dd
=5
2cc
2a
=6
2g
4a}
{4dd
4dd
4dd
=7
2cc
2a
=8
2g
4a}
==
!!!AGN: Ballade, Habgier, Mord, Reue, Selbstmord
!!!ONB: ESAC (Essen Associative Code) Database: BALLADE
!!!AMT: irregular
!!!AIN: vox
!!!EED: Helmut Schaffrath
!!!EEV: 1.0
*-
